src/assets/OptimizacionLogistica.svg

<svg width="56" height="56" viewBox="0 0 56 56" fill="none" xmlns="http://www.w3.org/2000/svg">
<circle cx="28" cy="28" r="28" fill="#FF7A00"/>
<mask id="mask0_271_1104" style="mask-type:alpha" maskUnits="userSpaceOnUse" x="16" y="15" width="25" height="25">
<rect x="16.0728" y="15.6316" width="24" height="24" fill="#D9D9D9"/>
</mask>
<g mask="url(#mask0_271_1104)">
<path d="M25.6728 31.2816L28.0728 29.4316L30.4728 31.2816L29.5728 28.2316L31.8228 26.6316H29.0228L28.0728 23.5316L27.1228 26.6316H24.3228L26.5728 28.2316L25.6728 31.2816ZM21.8978 36.6316L24.2228 29.0316L18.0728 24.6316H25.6728L28.0728 16.6316L30.4728 24.6316H38.0728L31.9228 29.0316L34.2478 36.6316L28.0728 31.9316L21.8978 36.6316Z" fill="white"/>
</g>
</svg>

<svg width="56" height="56" fill="none" xmlns="http://www.w3.org/2000/svg"><circle cx="28" cy="28" r="28" fill="#FF7A00"/><mask id="a" style="mask-type:alpha" maskUnits="userSpaceOnUse" x="16" y="15" width="25" height="25"><path fill="#D9D9D9" d="M16.073 15.632h24v24h-24z"/></mask><g mask="url(#a)"><path d="m25.673 31.282 2.4-1.85 2.4 1.85-.9-3.05 2.25-1.6h-2.8l-.95-3.1-.95 3.1h-2.8l2.25 1.6-.9 3.05Zm-3.775 5.35 2.325-7.6-6.15-4.4h7.6l2.4-8 2.4 8h7.6l-6.15 4.4 2.325 7.6-6.175-4.7-6.175 4.7Z" fill="#fff"/></g></svg>
